X: 31585
T: Palm Tree, The
R: reel
M: 4/4
K: Cmajor
|:^F|GCEG cege|efff edce|dGBd c_BGE|FAGE FED^F|
GCEG cege|efdf edce|dGBd gfdc|BGFD ECC:|
|:a|ge~e2 cegc|efdc BGGF|EGcE FAdc|Bg^fg agfa|
ge~e2 cegc|efdc BGGF|EGcE FAdc|BGFD ECC:|

